X: 22604
T: Lady On The Island, The
R: reel
M: 4/4
K: Dmajor
BAFB AFEF|D2FA BAFd|BAFB A3B|defd efdB|
BAFB AFEF|D2 FA BAdB|BAFB A3B|defd e3f||
d2fd efge|afdf edBA|d2fd efge|afdf e3f|
d2fd efge|afdf edBA|defg a3b|afdf efdB||

